X: 2
T: The Shoemaker's Daughter
R: reel
M: 4/4
L: 1/8
K: Gmaj
DF|:G2 DG BcdB|G=FDE FDCD|G2 DG Bcde|=fdBd c2 Bc|dg (3gfg dc (3cBc|Bcde =fdcd|g^fdc BcdB|FGAF G2:|ef|:g2 dg bgdg|gfdg fdcd|g2 dg Bgdg|f2 (3cBA BGGf|g2 dc BGGE|^FGAB c2 Bc|dg (3gfg de=fd|cA^FA G2:|


Tune 1832	Setting 1832

